X:1
T:Title
%%score ( 1 2 ) { 3 | 4 }
L:1/8
Q:1/4=103
M:4/4
K:C
V:1 treble nm="Grand Piano, Soprano"
V:2 treble 
V:3 bass nm="Choir Pad, Thy Word Have I Hid"
V:4 bass 
V:1
 [EG]2 [Ec]2 [GB][FA] [EG]2 | [DF][CE] [B,G]2 [B,D]2 z2 | [CE]2 [DF]2 [FB][FA]GD | %3
w: By~Hubert~Platt~Main * * * *|||
 [B,D][B,_E] [C=E]6 | [EG]2 [FA]2 [FA][FA] [FB]2 | [FA][FG] [EG]2 [Ec]2 z2 | %6
w: |||
 [^Fc]2 [GB]2 [FA][GB]dc | [^FB][FA] G6 | [FG]2 [Ec]2 [GB][FA] [EG]2 | z2 G6 | %10
w: ||||
 [EG]2 [FA]2 [FA][GA][^FA][Fd]- | [Fd][^FA] B4 A2 | [DG]2 [Gc]2 [CE][B,F] [CG]2 | %13
w: |||
 [E_B][GB] [GB]4 [FA]2 | [_EA]2 [=EG]2 [EA][Ec] [Fd]2 | [FA][FB] [Ec]6- | [Ec]2 z2 z4 |] %17
w: ||||
V:2
 x8 | x8 | x8 | x8 | x8 | x8 | z4 z2 ^F2 | x8 | x8 | [CE][B,F] C2 F2 E2 | x8 | z2 =F6 | x8 | x8 | %14
 x8 | x8 | x8 |] %17
V:3
 G,2 G,2 A,B, C2 | G,G, G,2 G,2 z2 | G,2 G,2 DC B,2 | G,G, G,6 | C2 C2 CC G,2 | B,B, C2 G,2 z2 | %6
 D2 D2 DDA,E | DC[K:bass] B,6 | B,2 CG, A,B, C2 | G,G, G,6 | C2 C2 C^CDA,- | A,D D4 C2 | %12
 B,2 C2 G,G, G,2 | G,[K:treble]C C4 C2 | C2 C2 C[K:bass]G, B,2 | DG, G,6- | G,2 z2 z4 |] %17
V:4
 C,2 C,2 C,C, C,2 | B,,C, G,,2 G,,2 z2 | G,,2 G,,2 G,G, G,2 | G,,G,, C,6 | C,2 F,2 F,F, D,2 | %5
 G,,G,, C,2 C,2 z2 | A,,2 D,2 D,D, D,2 | E,E, G,6 | G,2 C,2 C,C, C,2 | C,D, E,2 D,2 C,2 | %10
 C,2 F,2 F,E,D,D,- | D,D, G,6 | G,F, E,2 C,D, E,2 | C,E, F,4 F,2 | ^F,2 G,2 .G,2 G,,2 | %15
 G,,G,, C,6- | C,2 z2 z4 |] %17

